!!!OTL: SETZT ZUSAMMEN DIE GEWEHRE
!!!ARE: Europa, Mitteleuropa, Deutschland
!!!SCT: E1360
!!!YEM: Copyright 1995, estate of Helmut Schaffrath.
**kern
*ICvox
*Ivox
*M2/4
*k[b-e-a-]
*E-:
=1
{4.e-
8B-
=2
8e-
8B-
8e-
8g
=3
4cc
4b-}
=4
{4.ee-
8dd
=5
8cc
8b-
8a-
8g
=6
4b-
4a-}
=7
{4f
4f
=8
4.f
8f
=9
4b-
4a-
=10
2g}
=11
{4g
4b-
=12
4.ee-
8dd
=13
4ff
4ee-
=14
4dd
4cc}
=15
{4a-
4f
=16
4.dd
8cc
=17
4b-
4a-
=18
4cc
4b-}
=19
{4.g
8e-
=20
4.b-
8a-
=21
4g
4f
=22
2g}
=23
{4g
4b-
=24
4.ee-
8dd
=25
4ff
4ee-
=26
4dd
4cc}
=27
{4a-
4f
=28
4.dd
8cc
=29
4b-
4a-
=30
4cc
4b-}
=31
{4.g
8e-
=32
4.b-
8a-
=33
4g
4f
=34
2g}
==
!!!AGN: Staende -, Soldaten -, Kriegs - Lied
!!!ONB: ESAC (Essen Associative Code) Database: ERK3
!!!AMT: simple duple
!!!AIN: vox
!!!EED: Helmut Schaffrath
!!!EEV: 1.0
*-
